frontend/src/assets/icons/uranus.svg

<svg xmlns="http://www.w3.org/2000/svg" xmlns:xlink="http://www.w3.org/1999/xlink" width="1366" zoomAndPan="magnify" viewBox="0 0 1024.5 576" height="768" preserveAspectRatio="xMidYMid meet" version="1.0"><path fill="#00a0b8" d="M 506.824219 127.574219 C 592.238281 127.574219 661.476562 196.84375 661.476562 282.304688 C 661.476562 367.761719 592.238281 437.035156 506.824219 437.035156 C 421.484375 437.035156 352.246094 367.761719 352.246094 282.304688 C 352.246094 196.84375 421.484375 127.574219 506.824219 127.574219 Z M 506.824219 127.574219 " fill-opacity="1" fill-rule="evenodd"/><path fill="#00bbc5" d="M 512.574219 127.726562 C 573.683594 129.953125 625.746094 167.695312 648.824219 220.933594 C 642.921875 308.078125 593.234375 379.804688 502.300781 436.957031 C 435.746094 435.039062 379.695312 390.929688 359.835938 330.480469 C 409.828125 330.25 430.761719 327.335938 457.902344 276.933594 C 467.949219 258.292969 454.835938 211.804688 487.730469 192.011719 C 474.3125 135.246094 498.464844 176.132812 503.832031 168.15625 Z M 512.574219 127.726562 " fill-opacity="1" fill-rule="evenodd"/><path fill="#8dd4d0" d="M 558.425781 136.394531 C 571.152344 140.921875 583.191406 147.058594 594.15625 154.578125 C 587.101562 204.898438 541.632812 209.121094 547.765625 282.839844 C 551.523438 310.074219 476.691406 385.023438 422.863281 412.179688 C 411.824219 405.042969 401.855469 396.605469 393.039062 387.015625 C 414.964844 372.132812 448.933594 333.625 472.703125 352.34375 C 491.71875 285.449219 520.394531 314.753906 538.335938 232.210938 C 458.976562 345.589844 520.546875 138.542969 547.765625 180.582031 C 570.847656 179.738281 554.820312 151.125 558.425781 136.394531 Z M 558.425781 136.394531 " fill-opacity="1" fill-rule="evenodd"/><path fill="#00bbc5" d="M 356.386719 318.128906 C 354.011719 308.078125 352.628906 297.644531 352.324219 286.984375 C 397.179688 276.703125 427.082031 225.304688 439.960938 184.570312 C 445.941406 165.851562 423.324219 159.945312 443.644531 141.074219 C 454.835938 136.011719 466.796875 132.328125 479.21875 130.027344 C 441.800781 166.46875 445.941406 221.855469 404.539062 268.957031 C 385.445312 290.664062 360.066406 296.34375 356.386719 318.128906 Z M 356.386719 318.128906 " fill-opacity="1" fill-rule="evenodd"/><path fill="#00bbc5" d="M 352.78125 268.878906 C 356.386719 227.378906 376.320312 190.476562 406.148438 164.855469 C 413.738281 215.714844 377.855469 266.039062 372.335938 245.40625 C 369.957031 236.582031 358.839844 258.984375 352.78125 268.878906 Z M 352.78125 268.878906 " fill-opacity="1" fill-rule="evenodd"/><path fill="#1ab4be" d="M 656.109375 322.65625 C 640.160156 382.03125 589.707031 427.214844 527.679688 435.574219 L 518.707031 436.574219 C 617.464844 407.5 609.183594 321.8125 656.109375 322.65625 Z M 656.109375 322.65625 " fill-opacity="1" fill-rule="evenodd"/><path fill="#00bbc5" d="M 444.027344 232.976562 C 418.035156 261.515625 435.363281 266.960938 447.015625 245.636719 C 452.308594 235.96875 461.890625 213.261719 444.027344 232.976562 Z M 444.027344 232.976562 " fill-opacity="1" fill-rule="evenodd"/><path fill="#00bbc5" d="M 465.648438 195.464844 C 471.167969 195.464844 475.617188 190.25 475.617188 183.726562 C 475.617188 149.820312 437.507812 195.464844 465.648438 195.464844 Z M 465.648438 195.464844 " fill-opacity="1" fill-rule="evenodd"/><path fill="#8cd2d0" d="M 606.882812 180.199219 C 600.210938 182.117188 597.375 188.332031 604.964844 195.617188 C 604.964844 270.183594 635.867188 171.914062 606.882812 180.199219 Z M 606.882812 180.199219 " fill-opacity="1" fill-rule="evenodd"/><path fill="#8cd2d0" d="M 573.222656 232.59375 C 565.09375 241.339844 572.609375 259.828125 585.183594 241.183594 C 595.457031 225.917969 578.359375 227.070312 573.222656 232.59375 Z M 573.222656 232.59375 " fill-opacity="1" fill-rule="evenodd"/><path fill="#8cd2d0" d="M 543.625 324.113281 C 545.695312 337.382812 578.898438 262.359375 545.925781 305.777344 C 540.328125 313.140625 542.09375 313.832031 543.625 324.113281 Z M 543.625 324.113281 " fill-opacity="1" fill-rule="evenodd"/><path fill="#8cd2d0" d="M 618.308594 286.445312 C 602.207031 274.480469 597.144531 326.03125 618.308594 296.957031 C 622.066406 291.816406 624.058594 290.742188 618.308594 286.445312 Z M 618.308594 286.445312 " fill-opacity="1" fill-rule="evenodd"/><path fill="#8cd2d0" d="M 602.359375 317.589844 C 592.546875 320.582031 587.484375 326.566406 581.121094 332.933594 C 571.917969 341.984375 564.636719 353.03125 579.742188 344.363281 C 606.652344 329.023438 613.015625 314.292969 602.359375 317.589844 Z M 602.359375 317.589844 " fill-opacity="1" fill-rule="evenodd"/><path fill="#8cd2d0" d="M 563.253906 376.890625 C 557.042969 366.226562 542.628906 382.105469 560.878906 380.574219 C 564.175781 380.265625 565.554688 380.804688 563.253906 376.890625 Z M 563.253906 376.890625 " fill-opacity="1" fill-rule="evenodd"/><path fill="#8cd2d0" d="M 563.253906 376.890625 C 557.042969 366.226562 542.628906 382.105469 560.878906 380.574219 C 564.175781 380.265625 565.554688 380.804688 563.253906 376.890625 Z M 563.253906 376.890625 " fill-opacity="1" fill-rule="evenodd"/><path fill="#8cd2d0" d="M 572.609375 366.6875 C 572.148438 381.875 598.832031 353.417969 578.667969 358.324219 C 572.6875 359.785156 572.761719 361.703125 572.609375 366.6875 Z M 572.609375 366.6875 " fill-opacity="1" fill-rule="evenodd"/><path fill="#8cd2d0" d="M 591.546875 314.292969 C 587.714844 325.875 614.855469 309.996094 598.140625 309.152344 C 593.160156 308.921875 592.851562 310.457031 591.546875 314.292969 Z M 591.546875 314.292969 " fill-opacity="1" fill-rule="evenodd"/><path fill="#8cd2d0" d="M 617.769531 268.1875 C 622.679688 280.460938 633.488281 255.609375 619.535156 261.054688 C 615.394531 262.664062 616.160156 264.199219 617.769531 268.1875 Z M 617.769531 268.1875 " fill-opacity="1" fill-rule="evenodd"/><path fill="#04789d" d="M 538.257812 130.796875 C 581.886719 100.109375 621.144531 87.988281 643.378906 102.488281 C 683.25 128.417969 653.347656 229.984375 576.597656 329.328125 C 499.769531 428.671875 405.230469 488.125 365.28125 462.195312 C 340.667969 446.164062 342.660156 401.285156 365.894531 345.898438 C 367.429688 349.425781 369.191406 352.878906 371.03125 356.253906 C 360.144531 392.539062 362.214844 420.769531 379.773438 432.199219 C 414.660156 454.832031 497.316406 402.894531 564.40625 316.058594 C 631.496094 229.296875 657.640625 140.539062 622.753906 117.832031 C 605.964844 106.9375 578.054688 113.382812 546.15625 132.636719 C 543.550781 131.945312 540.941406 131.332031 538.257812 130.796875 Z M 538.257812 130.796875 " fill-opacity="1" fill-rule="evenodd"/></svg>

<svg xmlns="http://www.w3.org/2000/svg" viewBox="0 0 1024.5 576">
  <defs>
    <style>
      .base-circle{fill:#00a0b8}
      .detail-light{fill:#00bbc5}
      .detail-med{fill:#8cd2d0}
      .detail-dark{fill:#04789d}
      .path{fill-opacity:1;fill-rule:evenodd}
    </style>
  </defs>
  
  <!-- Base planet circle -->
  <path id="base" class="base-circle path" d="M506.8 127.6c85.4 0 154.7 69.2 154.7 154.7 0 85.5-69.3 154.7-154.7 154.7-85.3 0-154.6-69.2-154.6-154.7 0-85.5 69.3-154.7 154.6-154.7z"/>

  <!-- Main surface features -->
  <g id="surface-features">
    <path class="detail-light path" d="M512.6 127.7c61.1 2.3 113.2 40 136.2 93.2-5.9 87.2-55.6 158.9-146.5 216-66.6-1.9-122.6-46-142.5-106.5 50-0.2 71-3.1 98.1-53.5 10-18.7-3.1-65.1 29.8-85 -13.4-56.7 10.7-15.9 16.1-23.8z"/>
    
    <path class="detail-med path" d="M558.4 136.4c12.7 4.5 24.8 10.7 35.7 18.2-7 50.3-52.5 54.5-46.4 128.3 3.8 27.2-71 102.2-124.9 129.3a142 142 0 0 1-29.8-25.2c21.9-14.9 55.9-53.4 79.7-34.7 19-66.9 47.7-37.6 65.6-120.1-79.4 113.4-17.8-93.7 9.4-51.6 23.1-0.9 7-29.5 10.7-44.2z"/>
  </g>

  <!-- Ring system -->
  <path id="ring" class="detail-dark path" d="M538.3 130.8c43.6-30.7 82.9-42.8 105.1-28.3 39.9 25.9 10 127.5-66.8 226.8-76.8 99.4-171.4 158.8-211.3 132.9-24.6-16-22.6-60.9 0.6-116.3 1.5 3.5 3.3 7 5.1 10.4-10.9 36.2-8.8 64.5 8.7 75.9 34.9 22.6 117.5-29.3 184.6-116.1 67.1-86.8 93.2-175.5 58.3-198.2-16.8-10.9-44.7-4.5-76.6 14.8-2.6-0.7-5.2-1.3-7.9-1.8z"/>

  <!-- Remove duplicate path -->
  <path class="detail-med path" d="M563.3 376.9c-6.2-10.7-20.6 5.2-2.4 3.7 3.3-0.3 4.7 0.2 2.4-3.7z"/>
</svg>
